X: 2
T: Taylor's Fancy
R: slide
M: 12/8
L: 1/8
K: Dmaj
A{B}AG A2d c2A AGE|G2E G2A G2E D3|
ABA A2d c2A a2g|fef gfe d3 d2c|
A{B}AG A2B =c2A G2E|G2E G2A G2E DEG|
ABA A2B =c2A a2g|fef g2e d3 d2e|
|:f2d f2a g2e ~e3|d2c d2e d2c A2g|
f2d f2a g2e a2g|1 faf gfe d3 d2e:|2 fga gfe d3 d2c|

